X:1
T:Cool Water
T:Cool Water
C:Bob Nolan
Z:All Rights Reserved
L:1/8
M:4/4
K:C
V:1 treble nm="Piano" snm="Pno."
%%MIDI program 0
V:1
 z4 z2 C2 |:"C" E2 E2 E3 E |"G7" E2 D2 D3 E |"C" D2 C2 C3 A, |"G7" B,D- D6 | D8 |"C" D2 C6- | %7
w: All|day I've faced a|bar- ren waste with-|out the taste of|wat- ter. *|Cool|wa- ter|
w: |nights are cool and|I'm a fool; each|star's a pool of|wa- ter. _|Cool|wat- er.|
w: |sha- dows sway and|seem to say, "To-|night we pray for|wa- ter. _|Cool|wa- ter.|
w: |feet are sore; he's|yearn- ing for just|one thing more than|wa- ter. _|Cool|wa- ter.|
 C4 z2 G2 |"F" A2 A2 A3 A |"G7" B2 B2 B3 B |"C" c6 c2 |"F" A6 F2 |"C" C2 E6- | E8 |"G7" D8 | D8 | %16
w: _ Old|Dan and I with|throats burnt dry and|souls that|cry for|wa- ter.|_|Cool,|clear|
w: _ But|with the dawn I'll|wake and yawn and|car- ry|on to|wa- ter.|_|||
w: _ And|'way up there He'll|hear our pray'r and|show us|where there's|wa- ter.|_|||
w: _ Like|me, I guess, he'd|like to rest where|there's no|quest for|wa- ter.|_|||
"C" D2 C6- | C8 || C>CC>C C2 C>C |"G7" B,>B,B,>B, B,2 B,>B, |"C" C>CC>C C2 C>C |"G7" D>DD>D D2 D2 | %22
w: wa- ter.|_|Keep a- mov- in', Dan; don't you|lis- ten to him, Dan; He's a|dev- il not a man, and he|spreads the burn- ing sand with|
w: ||||||
w: ||||||
w: ||||||
"C" DC- C6- | C6 z2 |"F" A2 A>A A2 A2 |"C" G2 G2 G2 G>G |"F" A>AA>A A2 A>A |"G7" B>BB>B B2 B2 |1 %28
w: wa- ter. _|_|Dan, can you see that|big green tree where the|wa- ter's run- ning free, And it's|wait- ing there for you and|
w: ||||||
w: ||||||
w: ||||||
"C" c8- | c6 C2 :|"C""^Final Ending" c8 | A2 G2 A2 G2 | A2 A6- | A6 z2 |] %34
w: me?||me?|Cool, _ clear, _|wa- ter.|_|
w: |* 2.~The|||||
w: |* 3.~The|||||
w: |* 4.~Dan's|||||

